X:1
T:[ID 1-140]
T:[ID 1-140]
T:Bezeichnung standardisiert: Menuett Menuet
T:Urheber unbekannt Erstbeleg: vor 1767 (Datum in der schriftlichen Quelle) Datum in der hier transkribierten schriftlichen Quelle: 1767
C:Urheber unbekannt
C:Erstbeleg: vor 1767 (Datum in der schriftlichen Quelle)
C:Datum in der hier transkribierten schriftlichen Quelle: 1767
L:1/8
M:3/4
K:D
V:1 treble 
V:1
 d4 (3efg | fd f2 g2 |{g} a4 (3gab | a2 g2 f2 | A4 (3GAB | cA ec ae | d2 c2 B2 |{B} A6 :: %8
 e4 (3def | e2 f2 g2 | fagfed | cB A4 | (3efg g2 (3gab | a2 g2 f2 | egfedc |{c} d6 :| %16

